X:232
T:Royal Cirus. VWMLa.232
%%VWML:Anon2-3049-p151-0
F:http://www.vwml.org/record/Anon2/3049/p151
S:Anon. MS, late 18thC, Vaughan Williams Mem. Library
O:England;Yorkshire
Z:vmp/efdss.Simon Wilson. Reviewed PJH 2008.
M:6/8
L:1/8
Q:3/8=120
K:F
(F/G/)|AFc c>BA|BGd {e}d>cB|\
AFc !turn!c>BA|BGG !turn!G2(F/G/)|
AFc !turn!cBA|BGd {e}d>cB|Acf gae|.f.f.f f2:|
|:(e/f/)|gec !turn!c>dc|afc !turn!c>dc|\
.b.a.g .a.g.f|e>fg !turn!c2c|
dBd dfb|cAc (cf)a|.b.a.g .a.g.f|cfe f2:|
